X: 4
T: Planxty Ron Seaborg
P: Piffero primo a0573
O: Greg Bacon
%R: reel
F: http://ancients.sudburymuster.org/mus/ssp/pdf/blackwaterF.pdf
Z: 2019 John Chambers <jc:trillian.mit.edu>
M: 4/4
L: 1/8
K: G
|:\
G2GB AGFD | G2Bd g4   | e2ge d2Bd | cBAG FADF |\
G2GB AGFD | G2Bd g4   | e2g2 dBG2 | BAGF G4  :|
e3g  gfe2 | d2cB A2BA | GABc d2gf | e2eB d4  |\
e3g  gfe2 | d2cB A2d2 | GABc d2cB | A2A2 G4  ||
e3g  gfe2 | d2cB A2BA | GABc d2gf | e2eB d3e |\
G2GB AGFD | G2Bd g4   | e2g2 dBG2 | BAGF G2  |]


